X: 161878
T: Paddy Jim Frank's
L: 1/8
M: 4/4
K: G
GA | B2 eB dBBA | G2 BG AGED | B2 eB dBBA | GABG A2 GA |
B2 eB dBBA | G2 BG AGED | g2 fg edBA | GBAF G2 :|
ef | gdBG D2 GB | e2 dB GABd |  gdBG D2 GB | egdB A2 Bd |
gdBG D2 GB | e2 dB GABd | g2 fg edBA | GBAF G2 :|
